X:21044 
T:DOWN THE RIVER 
B:DMI.0336
Z:Nordberg/Black
N:There might be a case for treating this as a G modal
tune (= all F's natural), but I have left it as it appears
in DMI.
R:jig
%Q:1/4=160
M:6/8
L:1/8
K:G
c|dBG GBd|cAF FAc|Bcd eag|fed cBA|
dBG GBd|cAF ABc|BdB cAF|AGG G2:|
B|Ggf gba|gdc BAG|Ggf bag|fef g2A|
Ggf dfd|cAG FGA|fed cAF|AGG G2:|

%%%

